X:1
T:540 - OraÃ§Ã£o de CrianÃ§a
T:Letra: Stuart Edmund McNair (1867-1959)
T:MÃºsica: JosÃ© Calasans
M:4/4
L:1/8
Q:1/4=90
K:Dbmaj
V:1
A A3/2=G/2 | "Db"A2 F3A A3/2=G/2 | A2 F2 zA G3/2F/2 | "Ab"E2 E3G F3/2E/2 | "Db"F4 zA A3/2=G/2 | A2 F3A A3/2=G/2 | A2 F2 zA G3/2F/2 | "Ab7"G2 G3B A3/2G/2 | "Db"F4 z || A =GA | "Ab7"c2 c3G FG | "Db"B2 A2 zd cB | "Ab7"A2 GG F2 G2 | ("Db"B2 A2) zA =GA | "Ab7"c2 c3G FG | "Db"B2 A2 zd "Gb"cB | "Db"A2 AG "Ab7"F2 E2 | "Db"D4z |]
w:1.~Je-sus es-cu-tao ro-gar ter-ni-nho Da cri-an-ci-nha na pe-ti-Ã§Ã£o; Tam-bÃ©m co-nhe-ce seus bons in-ten-tos, Os pen-sa-men-tos do co-ra-Ã§Ã£o.  Je-sus es-cu-tao ro-gar ter-ni-nho    Da cri-an-ci-nha na pe-ti-Ã§Ã£o;_    Tam-bÃ©m co-nhe-ce seus bons in-ten-tos,    Os pen-sa-men-tos do co-ra-Ã§Ã£o.
w:2.~NÃ£o Ã© bas-tan-te quan-doa-joe-lha-mos Que pa-re-Ã§a-mos a Deus o-rar; Coma nos-sa bo-ca tam-bÃ©m de-vi-a Em har-mo-ni-a nos-saal-maes-tar.
w:3.~Je-sus sem fal-ta va-ler-nos po-de, E pro-te-ger-nos sem-pree-le quer; Qual-quer me-ni-no quea Cris-to pe-Ã§a Te-rÃ¡ au-xÃ­-lio que lheÃ© mis-ter.
w:4.~A Deus con-te-mos as nos-sas mÃ¡-goas, Bem con-fi-an-dos no seu a-mor; O que con-ve-nha re-ce-be-re-mos, Se fÃ© nÃ³s te-mos no Sal-va-dor.
W:
W:
W:1. Jesus escuta o rogar terninho
W:Da criancinha na petiÃ§Ã£o;
W:TmbÃ©m conhece seus bons intentos,
W:Os pensamentos do coraÃ§Ã£o.
W:
W:(Estribilho)
W:Jesus escuta o rogar terninho
W:Da criancinha na petiÃ§Ã£o;
W:TambÃ©m conhece seus bons intentos,
W:Os pensamentos do coraÃ§Ã£o.
W:
W:2. NÃ£o Ã© bastante quando ajoelhamos
W:Que pareÃ§amos a Deus orar;
W:Com a nossa boca tambÃ©m devia
W:Em harmonia nossa alma estar.
W:
W:
W:
W:3. Jesus sem falta valer-nos pode,
W:E proteger-nos sempre ele quer;
W:Qualquer menino que a Cristo peÃ§a
W:TerÃ¡ auxÃ­lio que lhe Ã© mister.
W:
W:4. A Deus contemos as nossas mÃ¡goas,
W:Bem confiandos no seu amor;
W:O que convenha receberemos,
W:Se fÃ© nÃ³s temos no Salvador.
W:
W:

